X: 2051
T: Mrs DUNDAS Mc QUEEN
C:
Q: "Reel."
R: Reel.
%R: reel
B: James Kerr "Merry Melodies" v.2 p.8 #51
Z: 2016 John Chambers <jc:trillian.mit.edu>
M: C
L: 1/8
K: A
ua !segno!|:\
cAec dBfd | cAec (ef/g/) (ae) |\
cAec dBfB | cA A/A/A Tf2e :|
|: ug |\
(a/g/f/e/) (ae) dBfg | aeag Tf2 (ef/g/) |\
adfc dBed |[1 cA A/A/A Tf2e :|[2 cAAa fa"_D.C."ea !segno!|]
